packages/bezier-icons/icons/security.svg

<svg width="24" height="24" viewBox="0 0 24 24" fill="none" xmlns="http://www.w3.org/2000/svg">
<path d="M7.08554 11.6387L8.5 10.2247L10.8603 12.5861L15.5858 7.86057L17 9.27479L10.8601 15.4147L7.08554 11.6387Z" fill="#313234"/>
<path fill-rule="evenodd" clip-rule="evenodd" d="M21 5.30701L12 1.93201L3 5.30701V10C3 14.6688 5.63784 18.937 9.81378 21.0249L12 22.118L14.1862 21.0249C18.3622 18.937 21 14.6688 21 10V5.30701ZM5 10V6.69301L12 4.06801L19 6.69301V10C19 13.9113 16.7902 17.4869 13.2918 19.2361L12 19.882L10.7082 19.2361C7.20984 17.4869 5 13.9113 5 10Z" fill="#313234"/>
</svg>

<svg xmlns="http://www.w3.org/2000/svg" width="24" height="24" fill="none" viewBox="0 0 24 24"><path fill="#313234" d="M7.086 11.639 8.5 10.225l2.36 2.361 4.726-4.725L17 9.275l-6.14 6.14z"/><path fill="#313234" fill-rule="evenodd" d="m21 5.307-9-3.375-9 3.375V10c0 4.669 2.638 8.937 6.814 11.025L12 22.118l2.186-1.093A12.33 12.33 0 0 0 21 10zM5 10V6.693l7-2.625 7 2.625V10c0 3.911-2.21 7.487-5.708 9.236L12 19.882l-1.292-.646A10.33 10.33 0 0 1 5 10" clip-rule="evenodd"/></svg>
